X: 29
T:Bourree
M:2/4
L:1/8
R:Bourree
Z:Steve Mansfield
K:C
B2 cB | d3 e | f3 g | d>e f/e/d/c/ | B2cB | d3 e |
f3 g | d4 ::[L:1/16] BABc dGBd | f2e2 d2c2 | BABc dGAd |
f2ed e2c2 | BABc dGBd | f2e2 d2c2 | BABc d2B2 | c8 :|

